dist/images/search-icon.svg

<?xml version="1.0" encoding="UTF-8" standalone="no"?>
<svg width="19px" height="19px" viewBox="0 0 19 19" version="1.1" xmlns="http://www.w3.org/2000/svg" xmlns:xlink="http://www.w3.org/1999/xlink" xmlns:sketch="http://www.bohemiancoding.com/sketch/ns">
    <defs></defs>
    <g id="Page-1" stroke="none" stroke-width="1" fill="none" fill-rule="evenodd" sketch:type="MSPage">
        <g id="Desktop-HD-Alt" sketch:type="MSArtboardGroup" transform="translate(-1242.000000, -34.000000)" fill="#FFFFFF">
            <g id="satellite-nav" sketch:type="MSLayerGroup" transform="translate(1141.000000, 26.000000)">
                <g id="1427843142_common_search_lookup_" transform="translate(101.000000, 8.000000)" sketch:type="MSShapeGroup">
                    <g id="miu">
                        <g id="common_search_lookup_glyph">
                            <path d="M13.3667388,11.5346894 C14.1956945,10.3458308 14.6818182,8.90014012 14.6818182,7.34090909 C14.6818182,3.28663675 11.3951814,0 7.34090909,0 C3.28663675,0 0,3.28663675 0,7.34090909 C0,11.3951814 3.28663675,14.6818182 7.34090909,14.6818182 C8.89990029,14.6818182 10.3453862,14.195844 11.5341409,13.3671211 L11.5346339,13.3666833 L16.9786009,18.8106502 C17.0795394,18.9115888 17.2400871,18.9146947 17.3437279,18.8110538 L18.8110538,17.3437279 C18.9117694,17.2430123 18.9070875,17.0750381 18.8106502,16.9786009 L13.3667388,11.5346894 L13.3667388,11.5346894 Z M7.34090909,12.9545455 C10.441235,12.9545455 12.9545455,10.441235 12.9545455,7.34090909 C12.9545455,4.24058318 10.441235,1.72727273 7.34090909,1.72727273 C4.24058318,1.72727273 1.72727273,4.24058318 1.72727273,7.34090909 C1.72727273,10.441235 4.24058318,12.9545455 7.34090909,12.9545455 L7.34090909,12.9545455 Z" id="search-icon"></path>
                        </g>
                    </g>
                </g>
            </g>
        </g>
    </g>
</svg>

<svg width="19" height="19" viewBox="0 0 19 19" xmlns="http://www.w3.org/2000/svg"><path d="M13.367 11.535c.83-1.19 1.315-2.635 1.315-4.194 0-4.053-3.287-7.34-7.34-7.34C3.286 0 0 3.287 0 7.34c0 4.055 3.287 7.342 7.34 7.342 1.56 0 3.005-.486 4.194-1.315l5.445 5.444c.1.102.26.105.364 0l1.467-1.466c.102-.1.097-.27 0-.365l-5.443-5.445zm-6.026 1.42c3.1 0 5.615-2.514 5.615-5.614S10.44 1.728 7.34 1.728 1.728 4.24 1.728 7.34s2.514 5.615 5.614 5.615z" fill="#fff"/></svg>
